img/logos/vagrant.svg

<?xml version="1.0" encoding="UTF-8" standalone="no"?>
<svg width="256px" height="313px" viewBox="0 0 256 313" version="1.1" xmlns="http://www.w3.org/2000/svg" xmlns:xlink="http://www.w3.org/1999/xlink" preserveAspectRatio="xMinYMin meet">
	<g>
		<g>
			<path d="M255.28,19.1658667 C253.437867,17.6554667 238.961067,9.89226667 238.961067,9.89226667 L223.5136,18.8672 L223.505067,18.8618667 L238.952533,9.888 L223.5104,0.6848 L223.505067,18.8618667 L207.394133,9.84426667 C207.394133,9.84426667 194.215467,17.5477333 187.816533,21.2405333 C179.762133,25.888 160.007467,37.6501333 160.007467,37.6501333 L160.007467,55.0197333 L143.733333,97.4197333 L143.733333,120.442667 L132.311467,127.109333 L127.7664,138.9984 L95.7386667,55.9136 L95.744,37.6928 L31.9146667,0.664533333 L0.0309333333,19.1210667 L0,19.1136 L0,37.8901333 L19.8837333,85.7813333 L31.9669333,92.8981333 L31.9776,114.738133 L79.8784,231.0816 L127.7504,258.477867 L127.7504,258.635733 L175.559467,230.9696 L255.4528,37.5082667 L255.28,19.1658667" fill="#3185B8"></path>
			<path d="M127.7856,258.498133 L79.8784,231.0816 L31.9776,114.738133 L31.9669333,92.8981333 L19.8837333,85.7813333 L0,37.8901333 L0,19.1136 L15.7333333,28.2869333 L15.7333333,46.7712 L31.9946667,56.208 L31.9968,37.616 L63.7685333,55.9989333 L65.3002667,74.1973333 L111.489067,194.088533 L143.588267,212.7872 L143.588267,249.454933 L127.7408,240.133333 L127.7856,258.498133" fill="#3185B8"></path>
			<path d="M95.7386667,55.9136 L127.7664,138.9984 L127.700267,184.7648 L111.466667,193.997867 L65.3002667,74.064 L63.7685333,55.9989333 L95.744,37.6928 L95.7386667,55.9136" fill="#61A5CE"></path>
			<path d="M15.7333333,28.2869333 L15.7333333,46.7712 L31.9968,37.616 L15.7333333,28.2869333" fill="#61A5CE"></path>
			<path d="M31.9946667,56.208 L31.9968,37.616 L15.7333333,46.7712 L31.9946667,56.208" fill="#EAE9E6"></path>
			<path d="M127.700267,184.7648 L143.710933,193.9264 L161.537067,149.169067 L175.265067,157.3376 L175.265067,114.442667 L179.6448,104.0864 L191.333333,110.9312 L191.333333,92.7978667 L175.421867,83.5530667 L191.421867,74.2645333 L175.688533,65.1978667 L175.646933,46.768 L160.007467,37.6501333 L160.007467,55.0197333 L143.733333,97.4197333 L143.733333,120.442667 L132.311467,127.109333 L127.7664,138.9984 L127.700267,184.7648" fill="#3185B8"></path>
			<path d="M127.480533,203.5008 L143.588267,212.7872 L143.508267,249.463467 L175.559467,230.9696 L255.4528,37.5082667 L255.28,19.1658667 L207.394133,46.768 L207.394133,83.5925333 L191.333333,92.7978667 L191.333333,110.9312 L179.6448,104.0864 L175.265067,114.442667 L175.265067,157.248 L153.0208,170.328533 L143.710933,193.9264 L127.480533,203.5008" fill="#61A5CE"></path>
			<path d="M63.6672,74.3978667 L79.7333333,65.0645333 L79.7333333,83.5306667 L63.6672,74.3978667" fill="#EAE9E6"></path>
			<path d="M79.7333333,83.5306667 L95.6661333,92.5312 L95.6661333,74.3978667 L79.7333333,65.0645333 L79.7333333,83.5306667" fill="#3185B8"></path>
			<path d="M47.8453333,120.196267 L47.8453333,138.795733 L63.9317333,129.5392 L47.8453333,120.196267" fill="#61A5CE"></path>
			<path d="M79.9882667,138.882133 L63.8453333,148.2816 L47.8453333,138.795733 L63.9317333,129.5392 L79.9882667,138.882133" fill="#EAE9E6"></path>
			<path d="M79.7706667,194.133333 L79.7706667,212.890667 L95.9402667,203.541333 L79.7706667,194.133333" fill="#61A5CE"></path>
			<path d="M111.522133,230.8832 L127.809067,240.349867 L127.867733,221.298133 L111.522133,230.8832" fill="#EAE9E6"></path>
			<path d="M127.7504,258.635733 L127.809067,240.349867 L143.508267,249.463467 L127.7504,258.635733" fill="#61A5CE"></path>
			<path d="M127.700267,184.7648 L111.466667,193.997867 L127.480533,203.5008 L143.710933,193.9264 L127.700267,184.7648" fill="#EAE9E6"></path>
			<path d="M207.394133,83.5925333 L207.394133,46.768 L191.540267,37.7429333 L191.540267,56.0896 L175.688533,65.1978667 L207.394133,83.5925333" fill="#3185B8"></path>
			<path d="M175.421867,83.5530667 L191.421867,74.2645333 L207.394133,83.5925333 L191.333333,92.7978667 L175.421867,83.5530667" fill="#EAE9E6"></path>
			<path d="M175.688533,65.1978667 L191.540267,56.0896 L191.540267,37.7429333 L175.646933,46.768 L175.688533,65.1978667" fill="#61A5CE"></path>
			<path d="M223.505067,18.8629333 L223.5104,0.6848 L238.952533,9.888 L223.505067,18.8629333" fill="#3185B8"></path>
			<path d="M255.28,19.1658667 L207.394133,46.768 L191.540267,37.7429333 L175.646933,46.768 L160.007467,37.6501333 C160.007467,37.6501333 179.762133,25.888 187.816533,21.2405333 C194.215467,17.5477333 207.394133,9.84426667 207.394133,9.84426667 L223.5136,18.8672 L238.961067,9.89226667 C238.961067,9.89226667 253.437867,17.6554667 255.28,19.1658667 C250.923733,21.7109333 255.28,19.1658667 255.28,19.1658667" fill="#EAE9E6"></path>
			<path d="M95.744,37.6928 L63.7685333,55.9989333 L0.0309333333,19.1210667 L31.9146667,0.664533333 L95.744,37.6928" fill="#EAE9E6"></path>
			<path d="M239.204267,46.3477333 L239.204267,28.432 L223.624533,37.4218667 L239.204267,46.3477333" fill="#3185B8"></path>
			<path d="M191.979733,129.6384 L207.482667,120.744533 L207.482667,138.5824 L191.979733,129.6384" fill="#3185B8"></path>
			<path d="M159.582933,203.378133 L159.582933,221.8624 L175.7312,212.520533 L159.582933,203.378133" fill="#EAE9E6"></path>
			<path d="M175.831467,212.520533 L175.632,194.1856 L159.582933,203.378133 L175.831467,212.520533" fill="#3185B8"></path>
		</g>
		<path d="M17.4165333,311.466667 L24.3456,311.466667 L37.4869333,271.684267 L32.5290667,271.684267 L20.8810667,306.986667 L9.23306667,271.684267 L4.2752,271.684267 L17.4165333,311.466667 Z M57.3184,271.684267 L50.3893333,271.684267 L36.9493333,311.466667 L42.1461333,311.466667 L45.3717333,301.909333 L62.2762667,301.909333 L65.5616,311.466667 L70.7584,311.466667 L57.3184,271.684267 Z M60.9621333,297.429333 L46.7456,297.429333 L53.8538667,275.387733 L60.9621333,297.429333 Z M81.3312,283.093333 C81.3312,277.717333 83.3024,275.746133 89.8730667,275.746133 C93.1584,275.746133 96.7424,276.104533 100.565333,276.7616 L101.162667,272.341333 C97.4592,271.505067 93.5168,271.086933 90.112,271.086933 C80.1962667,271.086933 76.1941333,274.7904 76.1941333,282.8544 L76.1941333,300.356267 C76.1941333,307.703467 79.3002667,312.064 89.4549333,312.064 C93.5765333,312.064 98.176,311.466667 102.058667,310.331733 L102.058667,293.188267 L97.1008,293.188267 L97.1008,306.688 C94.3530667,307.2256 91.7248,307.4048 89.6341333,307.4048 C82.8245333,307.4048 81.3312,305.134933 81.3312,300.0576 L81.3312,283.093333 Z M136.405333,311.466667 L142.318933,311.466667 L131.985067,296.4736 C136.584533,295.159467 138.3168,291.933867 138.3168,287.214933 L138.3168,281.480533 C138.3168,275.387733 135.330133,271.684267 126.788267,271.684267 L111.616,271.684267 L111.616,311.466667 L116.753067,311.466667 L116.753067,297.070933 L126.4896,297.070933 L136.405333,311.466667 Z M133.179733,281.540267 L133.179733,287.274667 C133.179733,291.157333 131.5072,292.5312 126.609067,292.5312 L116.753067,292.5312 L116.753067,276.283733 L126.609067,276.283733 C131.5072,276.283733 133.179733,277.597867 133.179733,281.540267 L133.179733,281.540267 Z M166.8096,271.684267 L159.880533,271.684267 L146.440533,311.466667 L151.637333,311.466667 L154.862933,301.909333 L171.767467,301.909333 L175.0528,311.466667 L180.2496,311.466667 L166.8096,271.684267 Z M170.453333,297.429333 L156.2368,297.429333 L163.345067,275.387733 L170.453333,297.429333 Z M209.220267,311.466667 L216.2688,311.466667 L216.2688,271.684267 L211.370667,271.684267 L211.370667,305.732267 L194.048,271.684267 L186.999467,271.684267 L186.999467,311.466667 L191.8976,311.466667 L191.8976,277.597867 L209.220267,311.466667 Z M234.427733,311.466667 L239.5648,311.466667 L239.5648,276.283733 L251.451733,276.283733 L251.451733,271.684267 L222.5408,271.684267 L222.5408,276.283733 L234.427733,276.283733 L234.427733,311.466667 Z" fill="#3285B7"></path>
	</g>
</svg>

<svg width="256" height="313" viewBox="0 0 256 313" xmlns="http://www.w3.org/2000/svg" preserveAspectRatio="xMinYMin meet"><path d="M255.28 19.166c-1.842-1.51-16.32-9.274-16.32-9.274l-15.446 8.975-.01-.005 15.45-8.974L223.51.685l-.005 18.177-16.11-9.018s-13.18 7.704-19.578 11.397c-8.055 4.648-27.81 16.41-27.81 16.41v17.37l-16.274 42.4v23.023l-11.422 6.666-4.544 11.888L95.74 55.914l.004-18.22L31.914.663.032 19.122 0 19.115V37.89l19.884 47.89L31.967 92.9l.01 21.84 47.9 116.344 47.873 27.396v.158l47.81-27.666 79.893-193.462-.173-18.342" fill="#3185B8"/><path d="M127.786 258.498l-47.908-27.416-47.9-116.344-.01-21.84-12.084-7.117L0 37.89V19.114l15.733 9.173V46.77l16.262 9.438.002-18.592L63.77 56l1.53 18.197 46.19 119.892 32.098 18.697v36.668l-15.847-9.322.046 18.365" fill="#3185B8"/><path d="M95.74 55.914l32.026 83.084-.066 45.767-16.233 9.233L65.3 74.064 63.77 56l31.974-18.307-.005 18.22M15.733 28.287V46.77l16.264-9.154-16.264-9.33" fill="#61A5CE"/><path d="M31.995 56.208l.002-18.592-16.264 9.155 16.262 9.438" fill="#EAE9E6"/><path d="M127.7 184.765l16.01 9.16 17.827-44.756 13.728 8.168v-42.895l4.38-10.357 11.688 6.845V92.8l-15.91-9.245 16-9.288-15.734-9.067-.043-18.43-15.64-9.118v17.37l-16.274 42.4v23.023l-11.422 6.666-4.544 11.888-.066 45.767" fill="#3185B8"/><path d="M127.48 203.5l16.108 9.287-.08 36.676 32.05-18.493 79.895-193.462-.173-18.342-47.886 27.602v36.825l-16.06 9.205v18.133l-11.69-6.844-4.38 10.357v42.805l-22.243 13.08-9.31 23.598-16.23 9.575" fill="#61A5CE"/><path d="M63.667 74.398l16.066-9.333V83.53L63.667 74.4" fill="#EAE9E6"/><path d="M79.733 83.53l15.933 9V74.4l-15.933-9.333V83.53" fill="#3185B8"/><path d="M47.845 120.196v18.6l16.087-9.257-16.087-9.344" fill="#61A5CE"/><path d="M79.988 138.882l-16.143 9.4-16-9.486 16.087-9.257 16.056 9.342" fill="#EAE9E6"/><path d="M79.77 194.133v18.758l16.17-9.35-16.17-9.407" fill="#61A5CE"/><path d="M111.522 230.883l16.287 9.467.058-19.052-16.346 9.585" fill="#EAE9E6"/><path d="M127.75 258.636l.06-18.286 15.698 9.113-15.758 9.173" fill="#61A5CE"/><path d="M127.7 184.765l-16.233 9.233 16.014 9.503 16.23-9.574-16.01-9.16" fill="#EAE9E6"/><path d="M207.394 83.593V46.768l-15.854-9.025V56.09l-15.85 9.108 31.704 18.395" fill="#3185B8"/><path d="M175.422 83.553l16-9.288 15.972 9.328-16.06 9.205-15.912-9.245" fill="#EAE9E6"/><path d="M175.69 65.198l15.85-9.108V37.743l-15.893 9.025.042 18.43" fill="#61A5CE"/><path d="M223.505 18.863L223.51.685l15.443 9.203-15.448 8.975" fill="#3185B8"/><path d="M255.28 19.166l-47.886 27.602-15.854-9.025-15.893 9.025-15.64-9.118s19.755-11.762 27.81-16.41c6.398-3.692 19.577-11.396 19.577-11.396l16.12 9.023 15.447-8.975s14.478 7.763 16.32 9.274c-4.356 2.545 0 0 0 0M95.744 37.693L63.77 56 .03 19.12 31.916.666l63.83 37.028" fill="#EAE9E6"/><path d="M239.204 46.348V28.432l-15.58 8.99 15.58 8.926M191.98 129.638l15.503-8.893v17.837l-15.503-8.944" fill="#3185B8"/><path d="M159.583 203.378v18.484l16.148-9.34-16.147-9.144" fill="#EAE9E6"/><path d="M175.83 212.52l-.198-18.334-16.05 9.192 16.25 9.143" fill="#3185B8"/><path d="M17.417 311.467h6.93l13.14-39.783H32.53l-11.65 35.303-11.647-35.303H4.275l13.142 39.783zm39.9-39.783H50.39l-13.44 39.783h5.196l3.226-9.558h16.904l3.286 9.557h5.196l-13.44-39.783zm3.645 25.745H46.746l7.108-22.042 7.108 22.04zm20.37-14.337c0-5.376 1.97-7.347 8.54-7.347 3.286 0 6.87.36 10.693 1.016l.598-4.42c-3.704-.837-7.646-1.255-11.05-1.255-9.917 0-13.92 3.703-13.92 11.767v17.502c0 7.347 3.107 11.708 13.262 11.708 4.122 0 8.72-.597 12.604-1.732v-17.144H97.1v13.5c-2.747.538-5.375.717-7.466.717-6.81 0-8.303-2.27-8.303-7.347v-16.965zm55.073 28.374h5.914l-10.335-14.993c4.6-1.315 6.332-4.54 6.332-9.26v-5.733c0-6.092-2.987-9.796-11.53-9.796h-15.17v39.783h5.136V297.07h9.737l9.915 14.397zm-3.225-29.927v5.735c0 3.882-1.673 5.256-6.57 5.256h-9.857v-16.246h9.856c4.897 0 6.57 1.314 6.57 5.256zm33.63-9.856h-6.93l-13.44 39.783h5.197l3.226-9.558h16.904l3.286 9.557h5.197l-13.44-39.783zm3.643 25.745h-14.216l7.108-22.042 7.108 22.04zm38.767 14.037h7.05v-39.783h-4.9v34.048l-17.322-34.048h-7.05v39.783h4.9v-33.87l17.322 33.87zm25.208 0h5.137v-35.183h11.887v-4.6h-28.91v4.6h11.886v35.183z" fill="#3285B7"/></svg>
